X:1
T:Buzzing Whistle Jig
C:Boyd Peters
S:Chiff and Fipple Message Board / 23 September, 2000
M:6/8
L:1/8
Q:1/4=120
P:AABB
K:D
P:A
EEE BAG | EEE BAG | DDD AFD | DDD AFD |
EEE BAG | EEE BAG | BdB AGF |1 GEE EED :|2 GEE EEd |
P:B
efe edB | efe edB | ded daf | ded daf |
efe edB | efe edB | (3gfeg feg |1 fed eed :|2 fed e3 |]
